icons/plexis/48/steam_icon_274170.svg

<svg viewBox="0 0 48 48" xmlns="http://www.w3.org/2000/svg">
  <path d="m24 1c22.703 0 23 .297 23 23 0 22.703-.297 23-23 23-22.703 0-23-.297-23-23 0-22.703.297-23 23-23z" fill="#4a5860"/>
  <path d="m25 10a15 15 0 0 0-15 15 15 15 0 0 0  15 15 15 15 0 0 0  15-15 15 15 0 0 0-15-15m-4 4h2v1h1v3h-8.734a12 12 0 0 1 3.113-3h2.621zm4 0h1 3.783a12 12 0 0 1 4.945 4h-5.728v-1h-2v1h-2zm0 5h2v3 3h-4v-5h2zm4 0h5v3h2v-1.76a12 12 0 0 1 1 4.76h-9v-3h1zm-14.89 1h5.89v3h1v2h-8a12 12 0 0 1  .182-2h .818v-2.78a12 12 0 0 1  .11-.22m-.94 7h7.83v1h1v2h-7.893a12 12 0 0 1-.938-3zm9.83 0h6v2h2v-2h5.818a12 12 0 0 1-1.438 4h-10.38v-1h-2zm-6.93 6h5.93v2h1v-2h6v2h1v-2h3.928a12 12 0 0 1-4.168 3h-1.76v.609a12 12 0 0 1-3 .391 12 12 0 0 1-3-.395v-.605h-1.78a12 12 0 0 1-2.22-1.266v-.734h-.92a12 12 0 0 1-1-1z" opacity=".1"/>
  <path d="m24 9a15 15 0 0 0-15 15 15 15 0 0 0  15 15 15 15 0 0 0  15-15 15 15 0 0 0-15-15zm-4 4h2v1h1v3h-8.734a12 12 0 0 1 3.113-3h2.621zm4 0h1 3.783a12 12 0 0 1 4.946 4h-5.729v-1h-2v1h-2zm0 5h2v3 3h-4v-5h2zm4 0h5v3h2v-1.76a12 12 0 0 1 1 4.76h-9v-3h1zm-14.89 1h5.89v3h1v2h-8a12 12 0 0 1  .182-2h .818v-2.783a12 12 0 0 1  .11-.217zm-.94 7h7.83v1h1v2h-7.89a12 12 0 0 1-.94-3zm9.83 0h6v2h2v-2h5.818a12 12 0 0 1-1.437 4h-10.381v-1h-2zm-6.93 6h5.93v2h1v-2h6v2h1v-2h3.928a12 12 0 0 1-4.168 3h-1.76v.609a12 12 0 0 1-3 .391 12 12 0 0 1-3-.395v-.605h-1.783a12 12 0 0 1-2.217-1.266v-.734h-.92a12 12 0 0 1-1.01-1z" fill="#ff8040"/>
</svg>

<svg xmlns="http://www.w3.org/2000/svg" viewBox="0 0 48 48">
 <g>
  
  
  
 </g>
 <g style="fill:#4a5860;fill-opacity:1">
  <path d="m 24 1 c 22.703 0 23 0.297 23 23 c 0 22.703 -0.297 23 -23 23 -22.703 0 -23 -0.297 -23 -23 0 -22.703 0.297 -23 23 -23 z"/>
 </g>
 <g>
  
 </g>
 <path d="M 25 10 A 15 15 0 0 0 10 25 15 15 0 0 0 25 40 15 15 0 0 0 40 25 15 15 0 0 0 25 10 m -4 4 2 0 0 1 1 0 0 3 -8.734 0 a 12 12 0 0 1 3.113 -3 L 21 15 21 14 m 4 0 1 0 3.783 0 a 12 12 0 0 1 4.945 4 L 29 18 l 0 -1 -2 0 0 1 -2 0 0 -4 z m 0 5 2 0 0 3 0 3 -4 0 0 -5 2 0 0 -1 z m 4 0 5 0 0 3 2 0 0 -1.76 A 12 12 0 0 1 37 25 l -9 0 0 -3 1 0 0 -3 z M 14.11 20 20 20 l 0 3 1 0 0 2 -8 0 a 12 12 0 0 1 0.182 -2 L 14 23 14 20.22 A 12 12 0 0 1 14.11 20 M 13.17 27 21 27 l 0 1 1 0 0 2 -7.893 0 a 12 12 0 0 1 -0.938 -3 z M 23 27 l 6 0 0 2 2 0 0 -2 5.818 0 a 12 12 0 0 1 -1.438 4 L 25 31 l 0 -1 -2 0 0 -3 z M 16.07 33 22 33 l 0 2 1 0 0 -2 6 0 0 2 1 0 0 -2 3.928 0 a 12 12 0 0 1 -4.168 3 L 28 36 28 36.609 A 12 12 0 0 1 25 37 12 12 0 0 1 22 36.605 L 22 36 20.22 36 A 12 12 0 0 1 18 34.734 L 18 34 17.08 34 a 12 12 0 0 1 -1 -1 z" style="fill:#000;opacity:0.1;fill-opacity:1;stroke:none;fill-rule:nonzero"/>
 <path d="M 24 9 A 15 15 0 0 0 9 24 A 15 15 0 0 0 24 39 A 15 15 0 0 0 39 24 A 15 15 0 0 0 24 9 z M 20 13 L 22 13 L 22 14 L 23 14 L 23 17 L 14.266 17 A 12 12 0 0 1 17.379 14 L 20 14 L 20 13 z M 24 13 L 25 13 L 28.783 13 A 12 12 0 0 1 33.729 17 L 28 17 L 28 16 L 26 16 L 26 17 L 24 17 L 24 13 z M 24 18 L 26 18 L 26 21 L 26 24 L 22 24 L 22 19 L 24 19 L 24 18 z M 28 18 L 33 18 L 33 21 L 35 21 L 35 19.24 A 12 12 0 0 1 36 24 L 27 24 L 27 21 L 28 21 L 28 18 z M 13.11 19 L 19 19 L 19 22 L 20 22 L 20 24 L 12 24 A 12 12 0 0 1 12.182 22 L 13 22 L 13 19.217 A 12 12 0 0 1 13.11 19 z M 12.17 26 L 20 26 L 20 27 L 21 27 L 21 29 L 13.11 29 A 12 12 0 0 1 12.17 26 z M 22 26 L 28 26 L 28 28 L 30 28 L 30 26 L 35.818 26 A 12 12 0 0 1 34.381 30 L 24 30 L 24 29 L 22 29 L 22 26 z M 15.07 32 L 21 32 L 21 34 L 22 34 L 22 32 L 28 32 L 28 34 L 29 34 L 29 32 L 32.928 32 A 12 12 0 0 1 28.76 35 L 27 35 L 27 35.609 A 12 12 0 0 1 24 36 A 12 12 0 0 1 21 35.605 L 21 35 L 19.217 35 A 12 12 0 0 1 17 33.734 L 17 33 L 16.08 33 A 12 12 0 0 1 15.07 32 z" style="fill:#ff8040;opacity:1;fill-opacity:1;stroke:none;fill-rule:nonzero"/>
</svg>
